X:1
T:Title
%%score { ( 1 3 ) | ( 2 4 ) }
L:1/8
M:6/8
K:Ab
V:1 treble nm="Grand Piano"
V:3 treble 
V:2 bass 
V:4 bass 
V:1
 z3 z2[Q:1/4=100] [CE] | [CE]>[A,C][B,D] [CE][EA]B | c3 c2 [_GB] | [FA]>[=EG][GB] [FA][_EG][DF] | %4
 [CE]3- [CE]2 [CE] | EBA G2 F | [CE][Ec][DB] [CA]2 [Ec] | [EB]>[EF][EG] [=DA][DG][DF] | %8
[M:5/8] E-E- E3 |[M:1/8] E |[M:3/4] B>B BB AB | [Ec][CA] [DF] [CE]2 [EA] | B>B BB cd | ee d c2 c | %14
 e>=d ec B[E_GA] | [FA]>[=EG] [FA] F3 | EE E B2 E |[M:5/8] [CA]-[CA]- [CA]3 |] %18
V:2
 z3 z2 [A,,A,] | [A,,A,]>[A,,E,][A,,E,] [A,,A,][C,A,][E,G,E] | [A,E]3 [A,E]2 [C,A,] | %3
 [D,D]>[D,D][D,D] [D,D][D,D][D,A,] | [A,,A,]3- [A,,A,]2 [A,,A,] | %5
 [E,G,D][E,G,D][E,A,D] [E,B,D]2 [E,G,D] | [A,,A,][A,,A,][A,,A,] [A,,A,]2 [A,,A,] | %7
 [B,,G,]>[B,,A,][B,,B,] [B,,F,][B,,B,][B,,A,] |[M:5/8] E,-[E,-G,][E,-A,] [E,B,]2 |[M:1/8] [E,G,D] | %10
[M:3/4] [E,G,D]>[E,G,D] [E,G,D][E,G,D] [E,F,D][E,G,D] | [A,,A,][A,,E,] [A,,A,] [A,,A,]2 [C,A,] | %12
 [E,G,E]>[E,G,E] [E,G,E][E,G,E] [E,A,E][E,B,E] | [F,CE][F,CE][K:treble] [G,B,E] [A,E]2 [A,E] | %14
 [A,CA]>[A,_CA] [A,=CA][A,EA] [A,C_G][K:bass]C, | [D,D]>[D,D] [D,D] [D,A,D]3 | %16
 [E,A,C][E,A,C] [E,A,C] [E,G,D]2 [E,G,D] |[M:5/8] [A,,E,]-[A,,E,]- [A,,E,]3 |] %18
V:3
 x6 | x6 | x6 | x6 | x6 | x6 | x6 | x6 |[M:5/8] z B,C D2 |[M:1/8] x |[M:3/4] x6 | x6 | x6 | x6 | %14
 x6 | x6 | x6 |[M:5/8] x5 |] %18
V:4
 x6 | x6 | x6 | x6 | x6 | x6 | x6 | x6 |[M:5/8] G, z z z2 |[M:1/8] x |[M:3/4] x6 | x6 | x6 | %13
 x2[K:treble] x4 | x5[K:bass] x | x6 | x6 |[M:5/8] x5 |] %18

